X:23 
T:GB/7b/23 Shule Agra
%%VWML:GB-7b-23-0
F:http://www.vwml.org/record/GB/7b/23
C:Transcribed by Simon Furey and Lewis Jones
L:1/8
Q:1/4=120
M:4/4
I:linebreak $
K:Ador
AB | c4 A4 | AGEF G4 | G3 E G2 B2 | AG A2 !fermata!E2 CD |$ E2 ED CDEF | G2 AG E4 | c3 A B2 e2 |
A4 A2 |]

